X:269
T:
R:polska
S:Efter Karl Odin Kaupe i Fröjel;
N:variant av föregående polska (nr 268).
O:Gotland, Fröjel
M:3/4
L:1/16
K:A
e2a2 gfed cABc|e2a2 gfed f2e2|c2ea gfed cded|edcd B4 A4::
EAcA GAce edcd|EBdB GBdf edcB|EAcA GAce edcd|EBdB GBdf edcB|
Aace dfBd ceAc|BdGB A4 A,4:|

